X:23
T:Oxter my Lassie
Z:Jack Campin, http://www.campin.me.uk/
F:Jack Campin's Nine-Note Tunebook
% last edit 03-02-2013
S:Blaikie MS (NLS MS.1578) p21, Blaikie #65
M:2/4
L:1/16
Q:1/4=60
K:Bb
F2|F3 G B2B2|B2G2 F2F2|G2B2 {d}c2Bc|dBcA B2
Bc|d2dB c2d2|B2BG FGBc|dccB    G2FD|CDF2 F4|
   B3 G FGBc|dcBG G2FD|C2DF    G2 |]

